!!!COM: Josquin des Prez
!!!CDT: ~1450-1521/08/27
!!!OTL: Faulte d'argent
!!!AGN: Chanson
!!!SCT: NJE 29.7
!!!SCA: New Josquin Edition 29.7
!!!voices: 5
**kern	**kern	**kern	**kern	**kern
*staff5	*staff4	*staff3	*staff2	*staff1
*Ivox	*Ivox	*Ivox	*Ivox	*Ivox
*I"Bassus	*I"Quintus	*I"Tenor	*I"Contratenor	*I"Superius
*I'B	*I'Q	*I'T	*I'Ct	*I'S
*clefF4	*clefF4	*clefGv2	*clefGv2	*clefG2
*k[b-]	*k[b-]	*k[b-]	*k[]	*k[b-]
*M2/1	*M2/1	*M2/1	*M2/1	*M2/1
*met(C|)	*met(C|)	*met(C|)	*met(C|)	*met(C|)
=1-	=1-	=1-	=1-	=1-
!	!	!	!LO:TX:Z=6:t=Canon at the lower fifth	!
1B-	0r	2r	0r	0r
.	.	1B-	.	.
2G\	.	.	.	.
[2B-\	.	2G/	.	.
=2	=2	=2	=2	=2
2B-\]	0r	1B-	0r	0r
4A\	.	.	.	.
4G\	.	.	.	.
2.F\	.	2.A/	.	.
4G\	.	4G/	.	.
=3	=3	=3	=3	=3
2A\	0r	2F/	0r	0r
2D\	.	2F/	.	.
[1E-i	.	2G/	.	.
.	.	2G/	.	.
=4	=4	=4	=4	=4
2E-\]	0r	2G/	0r	0r
2D\	.	2.A/	.	.
2C/	.	.	.	.
.	.	4G/	.	.
2BB-/	.	[2G/	.	.
=5	=5	=5	=5	=5
1AA	0r	2G/]	0r	1r
.	.	2F#i/	.	.
2GG/	.	2.G/	.	2r
[2G\	.	.	.	[2b-\
.	.	4A/	.	.
=6	=6	=6	=6	=6
2G\]	0r	2B-\	0r	2b-\]
2C/	.	2c\	.	2g/
1G	.	2d\	.	1b-
.	.	2e\	.	.
=7	=7	=7	=7	=7
2F\	0r	2f\	1f	2.a/
1D	.	2.F/	.	.
.	.	.	.	4g/
.	.	.	1d	1f
.	.	4G/	.	.
2BB-/	.	2B-\	.	.
=8	=8	=8	=8	=8
1D	0r	2A/	1f	2r
.	.	2F/	.	2f/
2.C/	.	1c	2.e\	2g/
.	.	.	.	2g/
4D\	.	.	4d\	.
=9	=9	=9	=9	=9
2E\	0r	2r	1c	2g/
2.F\	.	2c\	.	2.a/
.	.	2d\	2r	.
4G\	.	.	.	4g/
2E\	.	2e\	2c\	[2g/
=10	=10	=10	=10	=10
1D	1B-	4f\	2d\	2g/]
.	.	4e\	.	.
.	.	4d\	2d\	2f#i/
.	.	4c\	.	.
2GG/	1G	4B-\	2d\	1g
.	.	4A/	.	.
2C/	.	[2G/	[2e\	.
=11	=11	=11	=11	=11
2BB-/	1B-	4G/]	4e\]	1r
.	.	4F/	4d\	.
2GG/	.	2G/	1d	.
1AA	2.A\	1E	.	2r
.	.	.	2c#i\	2e/
.	4G\	.	.	.
=12	=12	=12	=12	=12
1r	1F	0D	1d	2f/
.	.	.	.	2.a/
1A	2r	.	1r	.
.	.	.	.	4g/
.	2F\	.	.	4f/
.	.	.	.	4e/
=13	=13	=13	=13	=13
2.B-\	2G\	2r	0r	0d
.	2G\	2G/	.	.
4A\	.	.	.	.
2G\	2G\	2B-\	.	.
2F\	[2A\	2A/	.	.
=14	=14	=14	=14	=14
1E-i	4A\]	2B-\	2r	1r
.	4G\	.	.	.
.	1G	2G/	2c\	.
1D	.	1A	2d\	2r
.	2F#i\	.	2d\	2a/
=15	=15	=15	=15	=15
0r	1G	1G	2d\	2.b-\
.	.	.	2.e\	.
.	.	.	.	4a/
.	1r	2E/	.	2g/
.	.	.	4d\	.
.	.	2F/	[2d\	2f/
=16	=16	=16	=16	=16
0r	0r	2G/	2d\]	1e
.	.	2A/	2c#i\	.
.	.	[1D	1d	[1d
=17	=17	=17	=17	=17
2r	2r	1D]	0r	1d]
2A\	2F\	.	.	.
2.B-\	2G\	2r	.	1r
.	2G\	2G/	.	.
4A\	.	.	.	.
=18	=18	=18	=18	=18
2G\	2G\	2B-\	1r	0r
2F\	2.A\	2A/	.	.
1E-i	.	2B-\	2r	.
.	4G\	.	.	.
.	[2G\	2G/	2c\	.
=19	=19	=19	=19	=19
1D	2G\]	1A	2d\	2r
.	2F#i\	.	2d\	2a/
1r	1G	1G	2d\	2.b-\
.	.	.	[2e\	.
.	.	.	.	4a/
=20	=20	=20	=20	=20
0r	0r	1r	4e\]	2g/
.	.	.	4d\	.
.	.	.	1d	2f/
.	.	1A	.	1e
.	.	.	2c#i\	.
=21	=21	=21	=21	=21
1r	1r	1.B-	0d	0d
1D	2r	.	.	.
.	2F\	2A/	.	.
=22	=22	=22	=22	=22
1.E-	2G\	2G/	0r	0r
.	2G\	2E-/	.	.
.	2G\	2G/	.	.
2D\	[2A\	2F/	.	.
=23	=23	=23	=23	=23
2C/	4A\]	4E-i/	0r	1r
.	4G\	4D/	.	.
2BB-/	1G	1D	.	.
1AA	.	.	.	2r
.	2F#i\	2C/	.	2a/
=24	=24	=24	=24	=24
0GG	0G	1D	1r	2.b-\
.	.	.	.	4cc\
.	.	2r	2r	1dd
.	.	2B-\	2d\	.
=25	=25	=25	=25	=25
2r	0r	2A/	2e\	0r
2D\	.	2A/	2f\	.
2.E\	.	1G	1g	.
4F\	.	.	.	.
=26	=26	=26	=26	=26
1G	0r	2r	2r	0r
.	.	2B-\	2d\	.
2r	.	2A/	2e\	.
2D\	.	2A/	2f\	.
=27	=27	=27	=27	=27
2.E\	1r	0G	0g	2r
.	.	.	.	2g/
4F\	.	.	.	.
2G\	2r	.	.	2g/
2E\	2G\	.	.	2g/
=28	=28	=28	=28	=28
2F\	2A\	2r	0r	4f/
.	.	.	.	4e/
2G\	2B-\	2d\	.	2d/
1C	1c	2.e\	.	2c/
.	.	.	.	2g/
.	.	4f\	.	.
=29	=29	=29	=29	=29
2r	2r	1g	0r	2e/
2E\	2G\	.	.	2g/
2F\	2A\	2r	.	4f/
.	.	.	.	4e/
2G\	2B-\	2d\	.	2d/
=30	=30	=30	=30	=30
0C	0c	2.e\	1r	2.c/
.	.	4f\	.	4d/
.	.	1g	2r	4e/
.	.	.	.	4f/
.	.	.	2e\	2g/
=31	=31	=31	=31	=31
0r	0r	2r	2.e\	4c/
.	.	.	.	4d/
.	.	2c\	.	4e/
.	.	.	4d\	4f/
.	.	2c\	2e\	4g/
.	.	.	.	4a/
.	.	[2d\	[2f\	[2b-\
=32	=32	=32	=32	=32
0r	0r	4d\]	4f\]	4b-\]
.	.	4c\	4e\	4a/
.	.	2A/	1e	1a
.	.	1B-	.	.
.	.	.	2d\	2g/
=33	=33	=33	=33	=33
1r	1r	0A	0e	1.a
2AA/	2r	.	.	.
[2AA/	2A\	.	.	2e/
=34	=34	=34	=34	=34
4AA/]	2.A\	2.E/	1r	1e
4GG/	.	.	.	.
4AA/	.	.	.	.
4BB-/	4G\	4D/	.	.
2C/	2A\	2E/	2r	1r
2D\	[2B-\	2F/	2d\	.
=35	=35	=35	=35	=35
1AA	4B-\]	1E	1c	2r
.	4A\	.	.	.
.	1A	.	.	2.e/
1E	.	2r	1B	.
.	.	.	.	4d/
.	2G\	[2E/	.	2Bni/
=36	=36	=36	=36	=36
2AA/	0A	2E/]	1A	2c/
2.D\	.	2D/	.	2d/
.	.	2.F/	2r	2A/
4C/	.	.	.	.
4D\	.	.	2d\	[2a/
4E\	.	4G/	.	.
=37	=37	=37	=37	=37
1F	1r	2A/	2c\	4a/]
.	.	.	.	4g/
.	.	2F/	2f\	4a/
.	.	.	.	4f/
1C	2r	2.c\	2f\	1g
.	2G\	.	2e\	.
.	.	4B-\	.	.
=38	=38	=38	=38	=38
1D	1F	1A	1f	2r
.	.	.	.	2.a/
1AA	1E	2r	2r	.
.	.	.	.	4g/
.	.	[2A/	2c\	2e/
=39	=39	=39	=39	=39
2r	1D	2A/]	2d\	1f
2D\	.	2F/	2f\	.
1C	2r	2.c\	2f\	1g
.	2G\	.	2e\	.
.	.	4B-\	.	.
=40	=40	=40	=40	=40
2.D\	2F\	2A/	0f	2r
.	2B-\	2d\	.	2.f/
4E\	.	.	.	.
1F	2B-\	1c	.	.
.	.	.	.	4e/
.	2A\	.	.	2c/
=41	=41	=41	=41	=41
2BB-/	1B-	2r	0r	2d/
2D\	.	1F	.	2f/
2D\	2r	.	.	2f/
2D\	2F\	2D/	.	2f/
=42	=42	=42	=42	=42
2C/	2G\	2E/	0r	2e/
2BB-/	2B-\	2.F/	.	2d/
1C	2B-\	.	.	1e
.	.	4E/	.	.
.	2A\	4E/	.	.
.	.	8D/L	.	.
.	.	8E/J	.	.
=43	=43	=43	=43	=43
0BB-	0B-	2F/	0r	[0d
.	.	4B-\	.	.
.	.	4c\	.	.
.	.	4d\	.	.
.	.	4e\	.	.
.	.	2f\	.	.
=44	=44	=44	=44	=44
1B-	0r	2r	0r	0d]
.	.	1B-	.	.
2G\	.	.	.	.
[2B-\	.	2G/	.	.
=45	=45	=45	=45	=45
2B-\]	0r	1B-	0r	0r
4A\	.	.	.	.
4G\	.	.	.	.
2.F\	.	2.A/	.	.
4G\	.	4G/	.	.
=46	=46	=46	=46	=46
2A\	0r	2F/	0r	0r
2D\	.	2F/	.	.
[1E-i	.	2G/	.	.
.	.	2G/	.	.
=47	=47	=47	=47	=47
2E-\]	0r	2G/	0r	0r
2D\	.	2.A/	.	.
2C/	.	.	.	.
.	.	4G/	.	.
2BB-/	.	[2G/	.	.
=48	=48	=48	=48	=48
1AA	0r	2G/]	0r	1r
.	.	2F#i/	.	.
2GG/	.	2.G/	.	1b-
[2G\	.	.	.	.
.	.	4A/	.	.
=49	=49	=49	=49	=49
2G\]	0r	2B-\	0r	1g
2C/	.	2c\	.	.
1G	.	2d\	.	1b-
.	.	2e\	.	.
=50	=50	=50	=50	=50
2F\	0r	2f\	1f	2.a/
1D	.	2.F/	.	.
.	.	.	.	4g/
.	.	.	1d	1f
.	.	4G/	.	.
2BB-/	.	2B-\	.	.
=51	=51	=51	=51	=51
1D	0r	2A/	1f	2r
.	.	2F/	.	2f/
2.C/	.	1c	2.e\	2g/
.	.	.	.	2g/
4D\	.	.	4d\	.
=52	=52	=52	=52	=52
2E\	0r	2r	1c	2g/
2.F\	.	2c\	.	2.a/
.	.	2d\	2r	.
4G\	.	.	.	4g/
2E\	.	2e\	2c\	[2g/
=53	=53	=53	=53	=53
1D	1B-	4f\	2d\	2g/]
.	.	4e\	.	.
.	.	4d\	2d\	2f#i/
.	.	4c\	.	.
2GG/	1G	4B-\	2d\	1g
.	.	4A/	.	.
2C/	.	[2G/	[2e\	.
=54	=54	=54	=54	=54
2BB-/	1B-	4G/]	4e\]	1r
.	.	4F/	4d\	.
2GG/	.	2G/	1d	.
1AA	2.A\	1E	.	2r
.	.	.	2c#i\	2e/
.	4G\	.	.	.
=55	=55	=55	=55	=55
1r	1F	0D	1d	2f/
.	.	.	.	2.a/
1A	2r	.	1r	.
.	.	.	.	4g/
.	2F\	.	.	4f/
.	.	.	.	4e/
=56	=56	=56	=56	=56
2.B-\	2G\	2r	0r	0d
.	2G\	2G/	.	.
4A\	.	.	.	.
2G\	2G\	2B-\	.	.
2F\	[2A\	2A/	.	.
=57	=57	=57	=57	=57
1E-i	4A\]	2B-\	2r	1r
.	4G\	.	.	.
.	1G	2G/	2c\	.
1D	.	1A	2d\	2r
.	2F#i\	.	2d\	2a/
=58	=58	=58	=58	=58
0r	1G	1G	2d\	2.b-\
.	.	.	2.e\	.
.	.	.	.	4a/
.	1r	2E/	.	2g/
.	.	.	4d\	.
.	.	2F/	[2d\	2f/
=59	=59	=59	=59	=59
0r	0r	2G/	2d\]	1e
.	.	2A/	2c#i\	.
.	.	[1D	1d	[1d
=60	=60	=60	=60	=60
2r	2r	1D]	0r	1d]
2A\	2F\	.	.	.
2.B-\	2G\	2r	.	1r
.	2G\	2G/	.	.
4A\	.	.	.	.
=61	=61	=61	=61	=61
2G\	2G\	2B-\	1r	0r
2F\	2.A\	2A/	.	.
1E-i	.	2B-\	2r	.
.	4G\	.	.	.
.	[2G\	2G/	2c\	.
=62	=62	=62	=62	=62
1D	2G\]	1A	2d\	2r
.	2F#i\	.	2d\	2a/
1r	1G	1G	2d\	2.b-\
.	.	.	[2e\	.
.	.	.	.	4a/
=63	=63	=63	=63	=63
0r	0r	1r	4e\]	2g/
.	.	.	4d\	.
.	.	.	1d	2f/
.	.	1A	.	1e
.	.	.	2c#i\	.
=64	=64	=64	=64	=64
1r	1r	2B-\	1d	0d
.	.	2G/	.	.
1D	2r	2A/	2r	.
.	2F\	[2D/	2d\	.
=65	=65	=65	=65	=65
2GG/	2G\	2D/]	2B\	0r
2.C/	2G\	2C/	2.e\	.
.	2G\	2G/	.	.
4BB-/	.	.	4d\	.
2C/	[2A\	2E/	4c\	.
.	.	.	4B\	.
=66	=66	=66	=66	=66
2D\	4A\]	2F/	2A/	1r
.	4G\	.	.	.
2GG/	1G	2G/	1B	.
1D	.	1D	.	2r
.	2F#i\	.	2A/	2d/
=67	=67	=67	=67	=67
2.C/	1.G	2r	2.c\	2e/
.	.	2.G/	.	2.g/
4BBni/	.	.	4d\	.
2GG/	.	.	1B	.
.	.	4A/	.	4f/
2GG/	2G\	2Bni\	.	2d/
=68	=68	=68	=68	=68
2.AA/	2E\	4c\	[0Al	2.c/
.	.	4A/	.	.
.	2.A\	2.c\	.	.
4BBni/	.	.	.	4d/
2C/	.	.	.	2e/
.	4G\	4Bni\	.	.
[2D\	4F\	4A/	.	[2f/
.	4E\	4G/	.	.
=69	=69	=69	=69	=69
2D\]	2D\	2F/	0A_	2f/]
4AA/	1E	4c\	.	4c/
4BBni/	.	4Bni\	.	4d/
2C/	.	4A/	.	2e/
.	.	4G/	.	.
[2D\	2D\	4F/	.	[2f/
.	.	4E/	.	.
=70	=70	=70	=70	=70
4D\]	2.F\	1D	0A_	4f/]
4C/	.	.	.	4e/
2D\	.	.	.	1d
.	4G\	.	.	.
1AA	1E	1E	.	.
.	.	.	.	2c#i/
=71	=71	=71	=71	=71
[0Dl	[0Dl	1.F	0A_	[0dl
.	.	2D/	.	.
=72	=72	=72	=72	=72
0D]	0D]	0Dl	0A]	0d]
==	==	==	==	==
*-	*-	*-	*-	*-
!!!RDF**kern: l=long note in original notation
!!!RDF**kern: i=editorial accidental
!!!ENC: Will Watson 10/09/2011
!!!END: 2011/08/10/
!!!EED: Jesse Rodin
!!!EEV: 2011/10/07/
!!attribution-level@Jos: 1 (secure)
!!!ONB: Translated from MusicXML and edited on 2011/10/07/ by Craig Sapp
!!muse2ps:  C^@{COM}\n@{SCT}^v90,90,90,90,90,130Q16
